DjangoProto/InteractiveMath_prj/static/svg/DemoCursor.svg

<?xml version="1.0" encoding="UTF-8" standalone="no" ?>
<!DOCTYPE svg PUBLIC "-//W3C//DTD SVG 1.1//EN" "http://www.w3.org/Graphics/SVG/1.1/DTD/svg11.dtd">
<svg xmlns="http://www.w3.org/2000/svg" xmlns:xlink="http://www.w3.org/1999/xlink" version="1.1" width="60" height="60" viewBox="0 0 164 164" xml:space="preserve">
<desc>Created with Fabric.js 4.6.0</desc>
<defs>
</defs>
<g transform="matrix(0.22 -0.22 0.2 0.2 86.41 72.95)" id="zvnyk2vEvbLfYYJspaDTW"  >
<filter id="SVGID_1" y="-21%" height="142%" x="-20%" width="140%" >
	<feGaussianBlur in="SourceAlpha" stdDeviation="0"></feGaussianBlur>
	<feOffset dx="0" dy="5.66" result="oBlur" ></feOffset>
	<feFlood flood-color="rgb(0,0,0)" flood-opacity="1"/>
	<feComposite in2="oBlur" operator="in" />
	<feMerge>
		<feMergeNode></feMergeNode>
		<feMergeNode in="SourceGraphic"></feMergeNode>
	</feMerge>
</filter>
<path style="stroke: none; stroke-width: 1; stroke-dasharray: none; stroke-linecap: butt; stroke-dashoffset: 0; stroke-linejoin: miter; stroke-miterlimit: 4; fill: rgb(228,30,65); fill-rule: nonzero; opacity: 1;filter: url(#SVGID_1);" vector-effect="non-scaling-stroke"  transform=" translate(-300, -300)" d="M 573.635 327.006 C 559.012 327.006 547.6419999999999 315.64799999999997 547.634 301.029 C 547.626 286.433 559.119 274.695 573.475 274.639 C 587.884 274.584 600.041 286.731 600 301.141 C 599.959 315.495 588.225 327.007 573.635 327.006 z M 492.303 407.854 C 506.699 407.95 518.887 395.825 518.886 381.411 C 518.885 367.066 507.155 355.508 492.58 355.488 C 477.947 355.469 466.548 366.806 466.52 381.406 C 466.493 396.017 477.939 407.759 492.303 407.854 z M 492.482 326.738 C 506.906 326.711 519.0110000000001 314.506 518.885 300.116 C 518.761 285.74699999999996 507.015 274.33 492.4 274.37 C 477.81199999999995 274.41 466.488 285.83 466.52099999999996 300.472 C 466.553 315.037 478.146 326.767 492.482 326.738 z M 466.79 219.375 C 466.91700000000003 233.822 479.18600000000004 245.849 493.562 245.622 C 507.958 245.395 519.245 233.64700000000002 519.153 218.98700000000002 C 519.061 204.43300000000002 507.576 193.17700000000002 492.90200000000004 193.26100000000002 C 478.375 193.345 466.664 205.057 466.79 219.375 z M 478.055 340.832 C 477.992 326.29 466.325 314.568 452.002 314.658 C 437.555 314.749 425.504 326.98400000000004 425.692 341.37100000000004 C 425.88 355.76200000000006 437.623 367.095 452.26800000000003 367.023 C 466.838 366.952 478.118 355.494 478.055 340.832 z M 533.293 315.471 C 518.674 315.43 506.932 326.839 506.80400000000003 341.21 C 506.67600000000004 355.599 518.779 367.80499999999995 533.203 367.83599999999996 C 547.539 367.86699999999996 559.135 356.13899999999995 559.168 341.573 C 559.203 326.931 547.884 315.513 533.293 315.471 z M 478.87 260.01 C 478.889 245.59799999999998 466.712 233.463 452.31 233.542 C 437.951 233.621 426.485 245.361 426.504 259.966 C 426.523 274.573 437.909 285.92 452.53900000000004 285.908 C 467.12 285.898 478.852 274.359 478.87 260.01 z M 533.249 286.721 C 547.631 286.92 559.879 274.875 559.981 260.431 C 560.083 246.10699999999997 548.367 234.428 533.828 234.35799999999998 C 519.161 234.28799999999998 507.695 245.55999999999997 507.61699999999996 260.125 C 507.539 274.776 518.859 286.522 533.249 286.721 z M 478.805 178.595 C 478.805 164.652 466.305 152.286 452.42 152.495 C 437.94 152.71200000000002 426.52500000000003 164.358 426.553 178.888 C 426.579 193.469 438.047 204.811 452.698 204.748 C 467.145 204.687 478.805 193.006 478.805 178.595 z M 385.514 381.41 C 385.495 395.74 397.339 407.646 411.617 407.651 C 425.447 407.65500000000003 437.57500000000005 395.526 437.572 381.693 C 437.569 367.41999999999996 425.66 355.57599999999996 411.327 355.59299999999996 C 397.213 355.611 385.533 367.294 385.514 381.41 z M 385.514 300.149 C 385.43 314.495 397.136 326.398 411.469 326.538 C 425.253 326.67400000000004 437.438 314.625 437.57099999999997 300.72700000000003 C 437.707 286.51700000000005 425.78799999999995 274.53000000000003 411.47499999999997 274.48100000000005 C 397.346 274.434 385.596 286.05 385.514 300.149 z M 385.875 219.393 C 385.808 233.202 397.896 245.361 411.757 245.424 C 426.001 245.489 437.916 233.577 437.933 219.257 C 437.949 205.137 426.299 193.418 412.195 193.36700000000002 C 397.853 193.315 385.946 205.089 385.875 219.393 z M 451.939 447.898 C 465.56 448.024 477.562 436.29100000000005 477.815 422.598 C 478.079 408.355 466.672 396.664 452.406 396.557 C 437.781 396.447 426.563 407.415 426.479 421.90700000000004 C 426.396 436.31 437.617 447.765 451.939 447.898 z M 437.555 138.59 C 437.76800000000003 124.684 425.869 112.66300000000001 411.86 112.632 C 398.161 112.601 386.514 124.45 386.612 138.31900000000002 C 386.711 152.35500000000002 398.08700000000005 163.609 412.14500000000004 163.57800000000003 C 425.77 163.547 437.346 152.164 437.555 138.59 z M 396.616 259.915 C 396.758 246.67400000000004 385.279 234.942 371.93199999999996 234.687 C 358.18499999999995 234.424 346.61299999999994 245.722 346.515 259.50100000000003 C 346.413 273.66200000000003 357.20599999999996 284.69500000000005 371.251 284.78700000000003 C 385.146 284.878 396.468 273.775 396.616 259.915 z M 395.818 340.698 C 395.75 326.9 384.251 315.59799999999996 370.485 315.799 C 357.148 315.993 345.634 327.68199999999996 345.717 340.94399999999996 C 345.803 354.78999999999996 357.121 365.965 370.99699999999996 365.90299999999996 C 385.05 365.841 395.89 354.833 395.818 340.698 z M 396.615 178.573 C 396.594 165.279 385.017 153.661 371.705 153.572 C 357.90799999999996 153.48 346.534 164.788 346.515 178.616 C 346.49399999999997 192.72000000000003 357.397 203.662 371.481 203.673 C 385.328 203.684 396.639 192.39 396.615 178.573 z M 395.755 422.217 C 395.776 408.498 384.433 397.077 370.762 397.051 C 357.719 397.027 345.825 408.928 345.86 421.96999999999997 C 345.897 435.63599999999997 357.32800000000003 446.97799999999995 371.039 446.95 C 384.606 446.924 395.734 435.787 395.755 422.217 z M 411.904 437.99 C 398.488 437.75100000000003 386.961 449.03000000000003 386.793 462.56 C 386.629 475.734 397.847 486.962 411.254 487.046 C 424.96700000000004 487.133 435.74600000000004 476.587 435.85200000000003 462.983 C 435.956 449.465 425.189 438.228 411.904 437.99 z M 395.631 97.519 C 395.47999999999996 84.37100000000001 384.489 73.46900000000001 371.35999999999996 73.44300000000001 C 358.10999999999996 73.41600000000001 347.52099999999996 84.19300000000001 347.52199999999993 97.70400000000001 C 347.5229999999999 111.19800000000001 358.0319999999999 121.62100000000001 371.56699999999995 121.552 C 385.041 121.483 395.783 110.755 395.631 97.519 z M 306.994 218.87 C 306.747 231.848 317.682 243.00300000000001 330.83500000000004 243.192 C 343.492 243.37300000000002 354.528 232.372 354.636 219.464 C 354.744 206.43 344.196 195.663 331.20700000000005 195.55 C 318.239 195.438 307.237 206.034 306.994 218.87 z M 331.11 114.48 C 318.281 114.297 307.308 125.098 307.11 138.104 C 306.921 150.57000000000002 317.737 161.66000000000003 330.379 161.961 C 343.19 162.26600000000002 354.451 151.37900000000002 354.59200000000004 138.555 C 354.733 125.566 344.102 114.666 331.11 114.48 z M 330.59 324.188 C 343.154 324.098 354.094 313.118 354.10999999999996 300.582 C 354.126 287.65 343.19699999999995 276.663 330.36299999999994 276.707 C 317.381 276.752 306.6259999999999 287.54699999999997 306.62899999999996 300.529 C 306.631 313.362 317.689 324.281 330.59 324.188 z M 330.692 405.301 C 343.293 405.123 354.176 394.10499999999996 354.10900000000004 381.59299999999996 C 354.04 368.63499999999993 343.088 357.71999999999997 330.259 357.82099999999997 C 317.274 357.92299999999994 306.569 368.76099999999997 306.62800000000004 381.746 C 306.688 394.573 317.831 405.482 330.692 405.301 z M 330.478 438.989 C 317.766 438.828 306.544 450.032 306.682 462.74699999999996 C 306.82300000000004 475.63699999999994 317.286 486.00199999999995 330.182 486.02699999999993 C 343.75100000000003 486.05299999999994 353.736 476.08599999999996 353.721 462.5249999999999 C 353.708 449.619 343.371 439.152 330.478 438.989 z M 370.762 526.428 C 383.464 526.425 394.252 515.565 394.121 502.912 C 393.99199999999996 490.469 383.304 480.008 370.745 480.034 C 358.273 480.05899999999997 347.66700000000003 490.73699999999997 347.725 503.20799999999997 C 347.785 515.764 358.368 526.432 370.762 526.428 z M 308.088 57.192 C 308.32300000000004 69.541 318.689 79.818 330.97 79.88 C 343.15700000000004 79.942 353.634 69.328 353.547 57.009 C 353.46000000000004 44.64 343.12600000000003 34.397999999999996 330.74800000000005 34.413 C 318.43 34.43 307.856 45.058 308.088 57.192 z M 289.777 363.39 C 301.478 363.49899999999997 311.965 353.224 312.19599999999997 341.421 C 312.428 329.563 302.448 319.093 290.626 318.793 C 277.977 318.473 267.905 327.872 267.594 340.289 C 267.282 352.745 277.392 363.273 289.777 363.39 z M 267.908 259.938 C 267.86 271.659 278.177 282.11 289.959 282.27799999999996 C 302.05 282.45 312.456 272.212 312.516 260.08599999999996 C 312.579 247.51699999999997 302.91700000000003 237.72999999999996 290.392 237.67299999999994 C 278.222 237.618 267.958 247.783 267.908 259.938 z M 330.372 565.586 C 341.875 565.69 352.182 555.437 352.166 543.903 C 352.149 531.9590000000001 342.562 522.27 330.617 522.125 C 318.694 521.979 308.826 531.555 308.704 543.387 C 308.577 555.634 318.184 565.476 330.372 565.586 z M 249.93 279.838 C 238.656 279.803 229.053 289.093 228.945 300.139 C 228.834 311.447 238.505 321.209 249.853 321.241 C 260.867 321.27299999999997 270.31 311.695 270.349 300.453 C 270.388 288.927 261.421 279.873 249.93 279.838 z M 248.825 402.353 C 260.113 402.557 269.91999999999996 392.952 270.04499999999996 381.569 C 270.16599999999994 370.574 260.60799999999995 361.038 249.38099999999997 360.954 C 237.83399999999997 360.866 228.72499999999997 369.783 228.64499999999998 381.25100000000003 C 228.565 392.546 237.752 402.151 248.825 402.353 z M 249.616 198.726 C 238.389 198.809 228.829 208.343 228.949 219.339 C 229.072 230.721 238.877 240.328 250.16500000000002 240.126 C 261.238 239.928 270.427 230.322 270.35 219.02700000000002 C 270.271 207.558 261.163 198.641 249.616 198.726 z M 189.697 340.771 C 189.597 351.339 198.25900000000001 360.16 208.769 360.19 C 218.84 360.219 227.811 351.32 227.887 341.225 C 227.963 330.964 219.389 322.16700000000003 209.155 322.00600000000003 C 198.201 321.834 189.8 329.936 189.697 340.771 z M 190 260.272 C 190.189 270.403 199.221 279.215 209.272 279.074 C 219.602 278.928 228.14 270.33500000000004 228.18599999999998 260.038 C 228.23399999999998 249.132 219.99999999999997 240.86700000000002 209.10699999999997 240.889 C 198.59 240.91 189.805 249.822 190 260.272 z M 151.346 219.801 C 151.58100000000002 228.73899999999998 159.56300000000002 236.58599999999998 168.45 236.61599999999999 C 178.02499999999998 236.64899999999997 185.957 228.68499999999997 185.893 219.10299999999998 C 185.832 209.87399999999997 177.796 201.974 168.565 202.06799999999998 C 158.972 202.167 151.095 210.277 151.346 219.801 z M 185.893 300.265 C 185.857 291.037 177.843 283.114 168.614 283.182 C 159.243 283.25100000000003 151.526 290.913 151.341 300.329 C 151.16400000000002 309.37 159.29500000000002 317.663 168.401 317.73 C 177.968 317.801 185.93 309.851 185.893 300.265 z M 167.918 364.292 C 158.691 364.351 150.787 372.38599999999997 150.877 381.613 C 150.96900000000002 390.992 158.64700000000002 398.69 168.06300000000002 398.845 C 177.109 398.99300000000005 185.38700000000003 390.83900000000006 185.424 381.74300000000005 C 185.462 372.172 177.497 364.23 167.918 364.292 z M 143.447 259.852 C 143.531 251.88499999999996 136.275 244.54599999999996 128.281 244.515 C 119.857 244.481 112.86200000000001 251.59799999999998 112.947 260.115 C 113.032 268.577 119.72 275.103 128.214 275.011 C 136.494 274.919 143.36 268.087 143.447 259.852 z M 142.641 340.829 C 142.60899999999998 332.67 135.62 325.777 127.407 325.805 C 119.39099999999999 325.831 112.225 333.124 112.383 341.095 C 112.548 349.35600000000005 119.523 356.18300000000005 127.67699999999999 356.06300000000005 C 136 355.939 142.673 349.146 142.641 340.829 z M 86.64 368.705 C 80.186 368.852 74.298 374.753 74.17 381.2 C 74.029 388.286 79.923 394.234 87.098 394.247 C 94.11 394.259 99.745 388.612 99.718 381.601 C 99.69 374.44 93.711 368.543 86.64 368.705 z M 100.368 218.931 C 100.21199999999999 212.47400000000002 94.309 206.598 87.857 206.476 C 80.783 206.342 74.829 212.254 74.823 219.418 C 74.817 226.424 80.472 232.05200000000002 87.48599999999999 232.02100000000002 C 94.656 231.989 100.54 226.01 100.368 218.931 z M 100.366 300.004 C 100.185 293.541 94.267 287.68600000000004 87.81700000000001 287.58700000000005 C 80.739 287.47900000000004 74.80900000000001 293.40500000000003 74.82300000000001 300.57200000000006 C 74.837 307.57900000000006 80.51100000000001 313.18800000000005 87.52700000000002 313.13400000000007 C 94.699 313.078 100.564 307.079 100.366 300.004 z M 56.083 340.781 C 55.937999999999995 335.483 51.432 331.151 46.248 331.327 C 40.928999999999995 331.508 36.721 335.883 36.775999999999996 341.176 C 36.83 346.346 41.381 350.70599999999996 46.641 350.627 C 51.846 350.548 56.225 345.98 56.083 340.781 z M 46.922 250.202 C 41.745999999999995 250.176 37.336 254.65 37.337999999999994 259.924 C 37.339999999999996 265.121 41.849 269.572 47.044999999999995 269.506 C 52.331999999999994 269.43899999999996 56.733999999999995 264.988 56.641999999999996 259.803 C 56.547 254.502 52.221 250.229 46.922 250.202 z M 12.299 219.365 C 12.392999999999999 216.22 9.729 213.448 6.587999999999999 213.42000000000002 C 3.467999999999999 213.39300000000003 0.6679999999999993 216.086 0.6109999999999989 219.168 C 0.5539999999999988 222.292 3.210999999999999 225.044 6.3519999999999985 225.114 C 9.449 225.182 12.205 222.518 12.299 219.365 z M 0.614 300.136 C 0.476 303.25600000000003 3.06 306.07000000000005 6.204 306.22200000000004 C 9.298 306.37100000000004 12.109 303.78600000000006 12.29 300.624 C 12.469999999999999 297.483 9.881 294.64700000000005 6.732999999999999 294.53700000000003 C 3.624 294.428 0.75 297.057 0.614 300.136 z M 11.688 381.757 C 11.837 378.66 9.254000000000001 375.853 6.090000000000001 375.672 C 2.9490000000000007 375.49100000000004 0.11300000000000043 378.08000000000004 0.004000000000000448 381.22900000000004 C -0.10499999999999955 384.33600000000007 2.5260000000000002 387.21200000000005 5.603000000000001 387.34700000000004 C 8.723 387.484 11.537 384.899 11.688 381.757 z" stroke-linecap="round" />
</g>
</svg>

<svg xmlns="http://www.w3.org/2000/svg" xml:space="preserve" viewBox="0 0 164 164"><g transform="matrix(.22 -.22 .2 .2 86.41 72.95)"><filter id="a" width="140%" height="142%" x="-20%" y="-21%"><feGaussianBlur in="SourceAlpha"/><feOffset dy="5.66" result="oBlur"/><feFlood flood-color="#000" flood-opacity="1"/><feComposite in2="oBlur" operator="in"/><feMerge><feMergeNode/><feMergeNode in="SourceGraphic"/></feMerge></filter><path fill="#e41e41" d="M573.635 327.006c-14.623 0-25.993-11.358-26.001-25.977-.008-14.596 11.485-26.334 25.841-26.39 14.409-.055 26.566 12.092 26.525 26.502-.041 14.354-11.775 25.866-26.365 25.865zm-81.332 80.848c14.396.096 26.584-12.029 26.583-26.443-.001-14.345-11.731-25.903-26.306-25.923-14.633-.019-26.032 11.318-26.06 25.918-.027 14.611 11.419 26.353 25.783 26.448zm.179-81.116c14.424-.027 26.529-12.232 26.403-26.622-.124-14.369-11.87-25.786-26.485-25.746-14.588.04-25.912 11.46-25.879 26.102.032 14.565 11.625 26.295 25.961 26.266zM466.79 219.375c.127 14.447 12.396 26.474 26.772 26.247 14.396-.227 25.683-11.975 25.591-26.635-.092-14.554-11.577-25.81-26.251-25.726-14.527.084-26.238 11.796-26.112 26.114zm11.265 121.457c-.063-14.542-11.73-26.264-26.053-26.174-14.447.091-26.498 12.326-26.31 26.713.188 14.391 11.931 25.724 26.576 25.652 14.57-.071 25.85-11.529 25.787-26.191zm55.238-25.361c-14.619-.041-26.361 11.368-26.489 25.739-.128 14.389 11.975 26.595 26.399 26.626 14.336.031 25.932-11.697 25.965-26.263.035-14.642-11.284-26.06-25.875-26.102zM478.87 260.01c.019-14.412-12.158-26.547-26.56-26.468-14.359.079-25.825 11.819-25.806 26.424.019 14.607 11.405 25.954 26.035 25.942 14.581-.01 26.313-11.549 26.331-25.898zm54.379 26.711c14.382.199 26.63-11.846 26.732-26.29.102-14.324-11.614-26.003-26.153-26.073-14.667-.07-26.133 11.202-26.211 25.767-.078 14.651 11.242 26.397 25.632 26.596zm-54.444-108.126c0-13.943-12.5-26.309-26.385-26.1-14.48.217-25.895 11.863-25.867 26.393.026 14.581 11.494 25.923 26.145 25.86 14.447-.061 26.107-11.742 26.107-26.153zM385.514 381.41c-.019 14.33 11.825 26.236 26.103 26.241 13.83.004 25.958-12.125 25.955-25.958-.003-14.273-11.912-26.117-26.245-26.1-14.114.018-25.794 11.701-25.813 25.817zm0-81.261c-.084 14.346 11.622 26.249 25.955 26.389 13.784.136 25.969-11.913 26.102-25.811.136-14.21-11.783-26.197-26.096-26.246-14.129-.047-25.879 11.569-25.961 25.668zm.361-80.756c-.067 13.809 12.021 25.968 25.882 26.031 14.244.065 26.159-11.847 26.176-26.167.016-14.12-11.634-25.839-25.738-25.89-14.342-.052-26.249 11.722-26.32 26.026zm66.064 228.505c13.621.126 25.623-11.607 25.876-25.3.264-14.243-11.143-25.934-25.409-26.041-14.625-.11-25.843 10.858-25.927 25.35-.083 14.403 11.138 25.858 25.46 25.991zM437.555 138.59c.213-13.906-11.686-25.927-25.695-25.958-13.699-.031-25.346 11.818-25.248 25.687.099 14.036 11.475 25.29 25.533 25.259 13.625-.031 25.201-11.414 25.41-24.988zm-40.939 121.325c.142-13.241-11.337-24.973-24.684-25.228-13.747-.263-25.319 11.035-25.417 24.814-.102 14.161 10.691 25.194 24.736 25.286 13.895.091 25.217-11.012 25.365-24.872zm-.798 80.783c-.068-13.798-11.567-25.1-25.333-24.899-13.337.194-24.851 11.883-24.768 25.145.086 13.846 11.404 25.021 25.28 24.959 14.053-.062 24.893-11.07 24.821-25.205zm.797-162.125c-.021-13.294-11.598-24.912-24.91-25.001-13.797-.092-25.171 11.216-25.19 25.044-.021 14.104 10.882 25.046 24.966 25.057 13.847.011 25.158-11.283 25.134-25.1zm-.86 243.644c.021-13.719-11.322-25.14-24.993-25.166-13.043-.024-24.937 11.877-24.902 24.919.037 13.666 11.468 25.008 25.179 24.98 13.567-.026 24.695-11.163 24.716-24.733zm16.149 15.773c-13.416-.239-24.943 11.04-25.111 24.57-.164 13.174 11.054 24.402 24.461 24.486 13.713.087 24.492-10.459 24.598-24.063.104-13.518-10.663-24.755-23.948-24.993zM395.631 97.519c-.151-13.148-11.142-24.05-24.271-24.076-13.25-.027-23.839 10.75-23.838 24.261.001 13.494 10.51 23.917 24.045 23.848 13.474-.069 24.216-10.797 24.064-24.033zM306.994 218.87c-.247 12.978 10.688 24.133 23.841 24.322 12.657.181 23.693-10.82 23.801-23.728.108-13.034-10.44-23.801-23.429-23.914-12.968-.112-23.97 10.484-24.213 23.32zm24.116-104.39c-12.829-.183-23.802 10.618-24 23.624-.189 12.466 10.627 23.556 23.269 23.857 12.811.305 24.072-10.582 24.213-23.406.141-12.989-10.49-23.889-23.482-24.075zm-.52 209.708c12.564-.09 23.504-11.07 23.52-23.606.016-12.932-10.913-23.919-23.747-23.875-12.982.045-23.737 10.84-23.734 23.822.002 12.833 11.06 23.752 23.961 23.659zm.102 81.113c12.601-.178 23.484-11.196 23.417-23.708-.069-12.958-11.021-23.873-23.85-23.772-12.985.102-23.69 10.94-23.631 23.925.06 12.827 11.203 23.736 24.064 23.555zm-.214 33.688c-12.712-.161-23.934 11.043-23.796 23.758.141 12.89 10.604 23.255 23.5 23.28 13.569.026 23.554-9.941 23.539-23.502-.013-12.906-10.35-23.373-23.243-23.536zm40.284 87.439c12.702-.003 23.49-10.863 23.359-23.516-.129-12.443-10.817-22.904-23.376-22.878-12.472.025-23.078 10.703-23.02 23.174.06 12.556 10.643 23.224 23.037 23.22zM308.088 57.192c.235 12.349 10.601 22.626 22.882 22.688 12.187.062 22.664-10.552 22.577-22.871-.087-12.369-10.421-22.611-22.799-22.596-12.318.017-22.892 10.645-22.66 22.779zM289.777 363.39c11.701.109 22.188-10.166 22.419-21.969.232-11.858-9.748-22.328-21.57-22.628-12.649-.32-22.721 9.079-23.032 21.496-.312 12.456 9.798 22.984 22.183 23.101zm-21.869-103.452c-.048 11.721 10.269 22.172 22.051 22.34 12.091.172 22.497-10.066 22.557-22.192.063-12.569-9.599-22.356-22.124-22.413-12.17-.055-22.434 10.11-22.484 22.265zm62.464 305.648c11.503.104 21.81-10.149 21.794-21.683-.017-11.944-9.604-21.633-21.549-21.778-11.923-.146-21.791 9.43-21.913 21.262-.127 12.247 9.48 22.089 21.668 22.199zM249.93 279.838c-11.274-.035-20.877 9.255-20.985 20.301-.111 11.308 9.56 21.07 20.908 21.102 11.014.032 20.457-9.546 20.496-20.788.039-11.526-8.928-20.58-20.419-20.615zm-1.105 122.515c11.288.204 21.095-9.401 21.22-20.784.121-10.995-9.437-20.531-20.664-20.615-11.547-.088-20.656 8.829-20.736 20.297-.08 11.295 9.107 20.9 20.18 21.102zm.791-203.627c-11.227.083-20.787 9.617-20.667 20.613.123 11.382 9.928 20.989 21.216 20.787 11.073-.198 20.262-9.804 20.185-21.099-.079-11.469-9.187-20.386-20.734-20.301zm-59.919 142.045c-.1 10.568 8.562 19.389 19.072 19.419 10.071.029 19.042-8.87 19.118-18.965.076-10.261-8.498-19.058-18.732-19.219-10.954-.172-19.355 7.93-19.458 18.765zm.303-80.499c.189 10.131 9.221 18.943 19.272 18.802 10.33-.146 18.868-8.739 18.914-19.036.048-10.906-8.186-19.171-19.079-19.149-10.517.021-19.302 8.933-19.107 19.383zm-38.654-40.471c.235 8.938 8.217 16.785 17.104 16.815 9.575.033 17.507-7.931 17.443-17.513-.061-9.229-8.097-17.129-17.328-17.035-9.593.099-17.47 8.209-17.219 17.733zm34.547 80.464c-.036-9.228-8.05-17.151-17.279-17.083-9.371.069-17.088 7.731-17.273 17.147-.177 9.041 7.954 17.334 17.06 17.401 9.567.071 17.529-7.879 17.492-17.465zm-17.975 64.027c-9.227.059-17.131 8.094-17.041 17.321.092 9.379 7.77 17.077 17.186 17.232 9.046.148 17.324-8.006 17.361-17.102.038-9.571-7.927-17.513-17.506-17.451zm-24.471-104.44c.084-7.967-7.172-15.306-15.166-15.337-8.424-.034-15.419 7.083-15.334 15.6.085 8.462 6.773 14.988 15.267 14.896 8.28-.092 15.146-6.924 15.233-15.159zm-.806 80.977c-.032-8.159-7.021-15.052-15.234-15.024-8.016.026-15.182 7.319-15.024 15.29.165 8.261 7.14 15.088 15.294 14.968 8.323-.124 14.996-6.917 14.964-15.234zM86.64 368.705c-6.454.147-12.342 6.048-12.47 12.495-.141 7.086 5.753 13.034 12.928 13.047 7.012.012 12.647-5.635 12.62-12.646-.028-7.161-6.007-13.058-13.078-12.896zm13.728-149.774c-.156-6.457-6.059-12.333-12.511-12.455-7.074-.134-13.028 5.778-13.034 12.942-.006 7.006 5.649 12.634 12.663 12.603 7.17-.032 13.054-6.011 12.882-13.09zm-.002 81.073c-.181-6.463-6.099-12.318-12.549-12.417-7.078-.108-13.008 5.818-12.994 12.985.014 7.007 5.688 12.616 12.704 12.562 7.172-.056 13.037-6.055 12.839-13.13zm-44.283 40.777c-.145-5.298-4.651-9.63-9.835-9.454-5.319.181-9.527 4.556-9.472 9.849.054 5.17 4.605 9.53 9.865 9.451 5.205-.079 9.584-4.647 9.442-9.846zm-9.161-90.579c-5.176-.026-9.586 4.448-9.584 9.722.002 5.197 4.511 9.648 9.707 9.582 5.287-.067 9.689-4.518 9.597-9.703-.095-5.301-4.421-9.574-9.72-9.601zm-34.623-30.837c.094-3.145-2.57-5.917-5.711-5.945-3.12-.027-5.92 2.666-5.977 5.748-.057 3.124 2.6 5.876 5.741 5.946 3.097.068 5.853-2.596 5.947-5.749zM.614 300.136c-.138 3.12 2.446 5.934 5.59 6.086 3.094.149 5.905-2.436 6.086-5.598.18-3.141-2.409-5.977-5.557-6.087-3.109-.109-5.983 2.52-6.119 5.599zm11.074 81.621c.149-3.097-2.434-5.904-5.598-6.085-3.141-.181-5.977 2.408-6.086 5.557-.109 3.107 2.522 5.983 5.599 6.118 3.12.137 5.934-2.448 6.085-5.59z" filter="url(#a)" transform="translate(-300 -300)" vector-effect="non-scaling-stroke"/></g></svg>
